;FLAVOR:Marlin
;TIME:288
;Filament used: 0.351775m
;Layer height: 0.2
;Generated with Cura_SteamEngine 4.0.0-BETA
M82 ;absolute extrusion mode
;------- start.gcode start ----------------
G21			; millimeters
G90			; Absolute positioning
M82 			; Absolute extruder moves for Cura
M104 S210	; set to standby temp and continue
M140 S55	; set final temp and continue
G32			; bed leveling
G29 S1			; load heightmap
G1 Z10 F3000 
G1 X-15 Y10 F3000		; offset by 10 in Y
M190 S55	; set and wait (bed first)
M109 S210	; set and wait
G92 E0			; Reset extruder
G1 Z0.1			; Down to zero
G1 E20 F300			; Extrude 20mm blob
G0 X10 F500			; Wipe it off
G92 E0			; Reset extruder
G1 Z5			; Lift head before printing starts
;------- start.gcode end ----------------

G92 E0
G1 F1800 E-1
;LAYER_COUNT:16
;LAYER:0
M107
G0 F3600 X135.835 Y80.139 Z0.2
;TYPE:SKIRT
G1 F1800 E0
G1 F2250 X136.175 Y79.621 E0.02061
G1 X136.579 Y79.151 E0.04122
G1 X137.04 Y78.738 E0.06181
G1 X137.55 Y78.387 E0.0824
G1 X138.101 Y78.104 E0.103
G1 X138.684 Y77.895 E0.1236
G1 X139.29 Y77.763 E0.14423
G1 X140.009 Y77.709 E0.16821
G1 X159.991 Y77.71 E0.83281
G1 X160.609 Y77.75 E0.85341
G1 X161.217 Y77.869 E0.87402
G1 X161.804 Y78.066 E0.89461
G1 X162.362 Y78.336 E0.91523
G1 X162.879 Y78.676 E0.93581
G1 X163.349 Y79.08 E0.95642
G1 X163.763 Y79.541 E0.97703
G1 X164.113 Y80.051 E0.99761
G1 X164.396 Y80.603 E1.01824
G1 X164.605 Y81.186 E1.03884
G1 X164.737 Y81.791 E1.05943
G1 X164.791 Y82.51 E1.08341
G1 X164.791 Y102.491 E1.74798
G1 X164.751 Y103.109 E1.76858
G1 X164.632 Y103.717 E1.78919
G1 X164.435 Y104.304 E1.80978
G1 X164.165 Y104.861 E1.83037
G1 X163.825 Y105.379 E1.85098
G1 X163.421 Y105.849 E1.87159
G1 X162.96 Y106.262 E1.89218
G1 X162.45 Y106.613 E1.91277
G1 X161.899 Y106.896 E1.93337
G1 X161.316 Y107.105 E1.95397
G1 X160.71 Y107.237 E1.9746
G1 X159.991 Y107.291 E1.99858
G1 X140.009 Y107.291 E2.66318
G1 X139.391 Y107.251 E2.68378
G1 X138.783 Y107.132 E2.70439
G1 X138.196 Y106.935 E2.72498
G1 X137.639 Y106.665 E2.74557
G1 X137.121 Y106.325 E2.76618
G1 X136.651 Y105.921 E2.78679
G1 X136.238 Y105.46 E2.80738
G1 X135.887 Y104.95 E2.82797
G1 X135.604 Y104.399 E2.84857
G1 X135.395 Y103.816 E2.86917
G1 X135.263 Y103.21 E2.8898
G1 X135.209 Y102.491 E2.91378
G1 X135.209 Y82.509 E3.57838
G1 X135.249 Y81.891 E3.59898
G1 X135.368 Y81.283 E3.61959
G1 X135.565 Y80.696 E3.64018
G1 X135.835 Y80.139 E3.66077
G0 F3600 X136.234 Y80.249
G1 F2250 X136.572 Y79.762 E3.68049
G1 X136.973 Y79.325 E3.70021
G1 X137.428 Y78.945 E3.71993
G1 X137.931 Y78.631 E3.73965
G1 X138.471 Y78.386 E3.75937
G1 X139.04 Y78.217 E3.77912
G1 X139.625 Y78.126 E3.79881
G1 X140.009 Y78.109 E3.81159
G1 X159.991 Y78.11 E4.4762
G1 X160.583 Y78.15 E4.49593
G1 X161.164 Y78.269 E4.51566
G1 X161.723 Y78.465 E4.53536
G1 X162.251 Y78.735 E4.55508
G1 X162.738 Y79.073 E4.5748
G1 X163.176 Y79.474 E4.59455
G1 X163.555 Y79.93 E4.61427
G1 X163.869 Y80.432 E4.63397
G1 X164.114 Y80.973 E4.65372
G1 X164.283 Y81.541 E4.67343
G1 X164.374 Y82.127 E4.69315
G1 X164.391 Y82.51 E4.7059
G1 X164.391 Y102.491 E5.37048
G1 X164.351 Y103.083 E5.39021
G1 X164.232 Y103.663 E5.4099
G1 X164.036 Y104.223 E5.42964
G1 X163.766 Y104.751 E5.44936
G1 X163.428 Y105.238 E5.46908
G1 X163.027 Y105.675 E5.4888
G1 X162.572 Y106.055 E5.50852
G1 X162.069 Y106.369 E5.52824
G1 X161.529 Y106.614 E5.54797
G1 X160.96 Y106.783 E5.56771
G1 X160.375 Y106.874 E5.5874
G1 X159.991 Y106.891 E5.60018
G1 X140.009 Y106.891 E6.26479
G1 X139.417 Y106.851 E6.28452
G1 X138.837 Y106.732 E6.30421
G1 X138.277 Y106.536 E6.32395
G1 X137.749 Y106.266 E6.34367
G1 X137.262 Y105.928 E6.36339
G1 X136.825 Y105.527 E6.38312
G1 X136.445 Y105.072 E6.40283
G1 X136.131 Y104.569 E6.42255
G1 X135.886 Y104.029 E6.44228
G1 X135.717 Y103.46 E6.46202
G1 X135.626 Y102.875 E6.48171
G1 X135.609 Y102.491 E6.4945
G1 X135.609 Y82.509 E7.1591
G1 X135.649 Y81.917 E7.17883
G1 X135.768 Y81.337 E7.19853
G1 X135.964 Y80.777 E7.21826
G1 X136.234 Y80.249 E7.23798
G0 F3600 X136.632 Y80.365
G1 F2250 X136.968 Y79.91 E7.2568
G1 X137.365 Y79.507 E7.27561
G1 X137.815 Y79.165 E7.29441
G1 X138.308 Y78.889 E7.3132
G1 X138.836 Y78.685 E7.33203
G1 X139.386 Y78.558 E7.3508
G1 X140.009 Y78.509 E7.37159
G1 X159.991 Y78.51 E8.03619
G1 X160.555 Y78.55 E8.055
G1 X161.108 Y78.669 E8.07381
G1 X161.638 Y78.865 E8.09261
G1 X162.136 Y79.133 E8.11142
G1 X162.59 Y79.47 E8.13022
G1 X162.993 Y79.866 E8.14901
G1 X163.336 Y80.316 E8.16783
G1 X163.611 Y80.809 E8.18661
G1 X163.815 Y81.337 E8.20544
G1 X163.942 Y81.888 E8.22424
G1 X163.991 Y82.51 E8.245
G1 X163.991 Y102.491 E8.90957
G1 X163.951 Y103.055 E8.92837
G1 X163.832 Y103.608 E8.94719
G1 X163.636 Y104.138 E8.96598
G1 X163.368 Y104.635 E8.98476
G1 X163.032 Y105.09 E9.00357
G1 X162.635 Y105.493 E9.02239
G1 X162.185 Y105.835 E9.04119
G1 X161.692 Y106.111 E9.05998
G1 X161.164 Y106.315 E9.07881
G1 X160.614 Y106.442 E9.09758
G1 X159.991 Y106.491 E9.11837
G1 X140.009 Y106.491 E9.78297
G1 X139.445 Y106.451 E9.80178
G1 X138.892 Y106.332 E9.82059
G1 X138.362 Y106.136 E9.83938
G1 X137.865 Y105.868 E9.85816
G1 X137.41 Y105.532 E9.87698
G1 X137.007 Y105.135 E9.89579
G1 X136.665 Y104.685 E9.91459
G1 X136.389 Y104.192 E9.93338
G1 X136.185 Y103.664 E9.95221
G1 X136.058 Y103.114 E9.97098
G1 X136.009 Y102.491 E9.99177
G1 X136.009 Y82.509 E10.65637
G1 X136.049 Y81.945 E10.67518
G1 X136.168 Y81.392 E10.69399
G1 X136.364 Y80.862 E10.71279
G1 X136.632 Y80.365 E10.73157
G0 F3600 X136.763 Y80.952
G1 F2250 X137.031 Y80.487 E10.74942
G1 X137.364 Y80.067 E10.76725
G1 X137.756 Y79.701 E10.78508
G1 X138.198 Y79.398 E10.80291
G1 X138.681 Y79.163 E10.82077
G1 X139.192 Y79.003 E10.83858
G1 X139.722 Y78.92 E10.85642
G1 X140.009 Y78.909 E10.86598
G1 X159.991 Y78.91 E11.53058
G1 X160.526 Y78.95 E11.54842
G1 X161.049 Y79.069 E11.56626
G1 X161.548 Y79.264 E11.58408
G1 X162.013 Y79.532 E11.60193
G1 X162.433 Y79.865 E11.61976
G1 X162.799 Y80.257 E11.6376
G1 X163.103 Y80.699 E11.65544
G1 X163.337 Y81.182 E11.67329
G1 X163.497 Y81.694 E11.69113
G1 X163.58 Y82.223 E11.70894
G1 X163.591 Y82.51 E11.7185
G1 X163.591 Y102.491 E12.38307
G1 X163.551 Y103.026 E12.40091
G1 X163.432 Y103.549 E12.41875
G1 X163.237 Y104.048 E12.43657
G1 X162.969 Y104.513 E12.45442
G1 X162.636 Y104.933 E12.47225
G1 X162.244 Y105.299 E12.49008
G1 X161.802 Y105.602 E12.50791
G1 X161.319 Y105.837 E12.52577
G1 X160.808 Y105.997 E12.54358
G1 X160.278 Y106.08 E12.56143
G1 X159.991 Y106.091 E12.57098
G1 X140.009 Y106.091 E13.23558
G1 X139.474 Y106.051 E13.25343
G1 X138.951 Y105.932 E13.27127
G1 X138.452 Y105.737 E13.28909
G1 X137.987 Y105.469 E13.30694
G1 X137.567 Y105.136 E13.32476
G1 X137.201 Y104.744 E13.3426
G1 X136.898 Y104.302 E13.36042
G1 X136.663 Y103.819 E13.37829
G1 X136.503 Y103.308 E13.3961
G1 X136.42 Y102.778 E13.41394
G1 X136.409 Y102.491 E13.42349
G1 X136.409 Y82.509 E14.0881
G1 X136.449 Y81.974 E14.10594
G1 X136.568 Y81.451 E14.12378
G1 X136.763 Y80.952 E14.1416
G0 F3600 X137.162 Y81.047
G1 F2250 X137.428 Y80.617 E14.15842
G1 X137.758 Y80.234 E14.17523
G1 X138.145 Y79.908 E14.19206
G1 X138.578 Y79.647 E14.20888
G1 X139.046 Y79.457 E14.22568
G1 X139.539 Y79.344 E14.2425
G1 X140.009 Y79.309 E14.25818
G1 X159.991 Y79.31 E14.92278
G1 X160.495 Y79.35 E14.9396
G1 X160.987 Y79.469 E14.95643
G1 X161.453 Y79.664 E14.97323
G1 X161.883 Y79.929 E14.99003
G1 X162.266 Y80.26 E15.00687
G1 X162.592 Y80.646 E15.02367
G1 X162.853 Y81.079 E15.04049
G1 X163.043 Y81.548 E15.05732
G1 X163.156 Y82.04 E15.07411
G1 X163.191 Y82.51 E15.08979
G1 X163.191 Y102.491 E15.75436
G1 X163.151 Y102.995 E15.77117
G1 X163.032 Y103.486 E15.78798
G1 X162.838 Y103.953 E15.8048
G1 X162.572 Y104.383 E15.82161
G1 X162.242 Y104.766 E15.83843
G1 X161.855 Y105.092 E15.85526
G1 X161.422 Y105.353 E15.87207
G1 X160.954 Y105.543 E15.88887
G1 X160.461 Y105.656 E15.9057
G1 X159.991 Y105.691 E15.92137
G1 X140.009 Y105.691 E16.58597
G1 X139.505 Y105.651 E16.60279
G1 X139.014 Y105.532 E16.61959
G1 X138.547 Y105.338 E16.63641
G1 X138.117 Y105.072 E16.65323
G1 X137.734 Y104.742 E16.67005
G1 X137.408 Y104.355 E16.68688
G1 X137.147 Y103.922 E16.70369
G1 X136.957 Y103.454 E16.72049
G1 X136.844 Y102.961 E16.73731
G1 X136.809 Y102.491 E16.75299
G1 X136.809 Y82.509 E17.41759
G1 X136.849 Y82.005 E17.43441
G1 X136.968 Y81.514 E17.45121
G1 X137.162 Y81.047 E17.46803
G1 F1800 E16.46803
;MESH:3mmBox.stl
G0 F3600 X139.335 Y83.114
G0 X140.614 Y83.114
G0 X159.33 Y83.17
G0 X159.4 Y83.1
;TYPE:WALL-INNER
G1 F1800 E17.46803
G1 F2250 X159.4 Y101.9 E18.09332
G1 X140.6 Y101.9 E18.71861
G1 X140.6 Y83.1 E19.3439
G1 X159.4 Y83.1 E19.96919
G0 F3600 X159.8 Y82.7
;TYPE:WALL-OUTER
G1 F2250 X159.8 Y102.3 E20.62109
G1 X140.2 Y102.3 E21.27299
G1 X140.2 Y82.7 E21.92489
G1 X159.8 Y82.7 E22.57679
G0 F3600 X159.8 Y82.9
G0 X159.36 Y83.14
G0 X159.01 Y83.49
;TYPE:SKIN
G1 F2250 X159.01 Y101.51 E23.17614
G1 X140.99 Y101.51 E23.77548
G1 X140.99 Y83.49 E24.37483
G1 X159.01 Y83.49 E24.97418
G0 F3600 X158.829 Y84.159
G1 F2250 X158.34 Y83.669 E24.9972
G0 F3600 X157.774 Y83.669
G1 F2250 X158.829 Y84.724 E25.04683
G0 F3600 X158.829 Y85.29
G1 F2250 X157.208 Y83.669 E25.12307
G0 F3600 X156.643 Y83.669
G1 F2250 X158.829 Y85.856 E25.22592
G0 F3600 X158.829 Y86.421
G1 F2250 X156.077 Y83.669 E25.35537
G0 F3600 X155.511 Y83.669
G1 F2250 X158.829 Y86.987 E25.51143
G0 F3600 X158.829 Y87.553
G1 F2250 X154.946 Y83.669 E25.6941
G0 F3600 X154.38 Y83.669
G1 F2250 X158.829 Y88.118 E25.90337
G0 F3600 X158.829 Y88.684
G1 F2250 X153.814 Y83.669 E26.13926
G0 F3600 X153.249 Y83.669
G1 F2250 X158.829 Y89.25 E26.40175
G0 F3600 X158.829 Y89.815
G1 F2250 X152.683 Y83.669 E26.69084
G0 F3600 X152.117 Y83.669
G1 F2250 X158.829 Y90.381 E27.00655
G0 F3600 X158.829 Y90.947
G1 F2250 X151.552 Y83.669 E27.34886
G0 F3600 X150.986 Y83.669
G1 F2250 X158.829 Y91.513 E27.7178
G0 F3600 X158.829 Y92.078
G1 F2250 X150.42 Y83.669 E28.11333
G0 F3600 X149.855 Y83.669
G1 F2250 X158.829 Y92.644 E28.53546
G0 F3600 X158.829 Y93.21
G1 F2250 X149.289 Y83.669 E28.98422
G0 F3600 X148.723 Y83.669
G1 F2250 X158.829 Y93.775 E29.45957
G0 F3600 X158.829 Y94.341
G1 F2250 X148.157 Y83.669 E29.96155
G0 F3600 X147.592 Y83.669
G1 F2250 X158.829 Y94.907 E30.49013
G0 F3600 X158.829 Y95.472
G1 F2250 X147.026 Y83.669 E31.04531
G0 F3600 X146.46 Y83.669
G1 F2250 X158.829 Y96.038 E31.62711
G0 F3600 X158.829 Y96.604
G1 F2250 X145.895 Y83.669 E32.23551
G0 F3600 X145.329 Y83.669
G1 F2250 X158.829 Y97.169 E32.8705
G0 F3600 X158.829 Y97.735
G1 F2250 X144.763 Y83.669 E33.53213
G0 F3600 X144.198 Y83.669
G1 F2250 X158.829 Y98.301 E34.22035
G0 F3600 X158.829 Y98.866
G1 F2250 X143.632 Y83.669 E34.93517
G0 F3600 X143.066 Y83.669
G1 F2250 X158.829 Y99.432 E35.67661
G0 F3600 X158.829 Y99.998
G1 F2250 X142.501 Y83.669 E36.44465
G0 F3600 X141.935 Y83.669
G1 F2250 X158.829 Y100.564 E37.23932
G0 F3600 X158.829 Y101.129
G1 F2250 X141.369 Y83.669 E38.06058
G0 F3600 X141.168 Y84.034
G1 F2250 X158.464 Y101.329 E38.87411
G0 F3600 X157.898 Y101.329
G1 F2250 X141.168 Y84.6 E39.66101
G0 F3600 X141.168 Y85.166
G1 F2250 X157.332 Y101.329 E40.4213
G0 F3600 X156.766 Y101.329
G1 F2250 X141.168 Y85.731 E41.15498
G0 F3600 X141.168 Y86.297
G1 F2250 X156.201 Y101.329 E41.86206
G0 F3600 X155.635 Y101.329
G1 F2250 X141.168 Y86.863 E42.54252
G0 F3600 X141.168 Y87.428
G1 F2250 X155.069 Y101.329 E43.19638
G0 F3600 X154.504 Y101.329
G1 F2250 X141.168 Y87.994 E43.82364
G0 F3600 X141.168 Y88.56
G1 F2250 X153.938 Y101.329 E44.42428
G0 F3600 X153.372 Y101.329
G1 F2250 X141.168 Y89.125 E44.99832
G0 F3600 X141.168 Y89.691
G1 F2250 X152.807 Y101.329 E45.54576
G0 F3600 X152.241 Y101.329
G1 F2250 X141.168 Y90.257 E46.06657
G0 F3600 X141.168 Y90.822
G1 F2250 X151.675 Y101.329 E46.56079
G0 F3600 X151.11 Y101.329
G1 F2250 X141.168 Y91.388 E47.02841
G0 F3600 X141.168 Y91.954
G1 F2250 X150.544 Y101.329 E47.4694
G0 F3600 X149.978 Y101.329
G1 F2250 X141.168 Y92.519 E47.8838
G0 F3600 X141.168 Y93.085
G1 F2250 X149.413 Y101.329 E48.2716
G0 F3600 X148.847 Y101.329
G1 F2250 X141.168 Y93.651 E48.63277
G0 F3600 X141.168 Y94.217
M104 S210
G1 F2250 X148.281 Y101.329 E48.96732
G0 F3600 X147.716 Y101.329
G1 F2250 X141.168 Y94.782 E49.27529
G0 F3600 X141.168 Y95.348
G1 F2250 X147.15 Y101.329 E49.55664
G0 F3600 X146.584 Y101.329
G1 F2250 X141.168 Y95.914 E49.81137
G0 F3600 X141.168 Y96.479
G1 F2250 X146.018 Y101.329 E50.0395
G0 F3600 X145.453 Y101.329
G1 F2250 X141.168 Y97.045 E50.24103
G0 F3600 X141.168 Y97.611
G1 F2250 X144.887 Y101.329 E50.41594
G0 F3600 X144.321 Y101.329
G1 F2250 X141.168 Y98.176 E50.56425
G0 F3600 X141.168 Y98.742
G1 F2250 X143.756 Y101.329 E50.68595
G0 F3600 X143.19 Y101.329
G1 F2250 X141.168 Y99.308 E50.78104
G0 F3600 X141.168 Y99.873
G1 F2250 X142.624 Y101.329 E50.84953
G0 F3600 X142.059 Y101.329
G1 F2250 X141.168 Y100.439 E50.89141
G0 F3600 X141.168 Y101.005
G1 F2250 X141.493 Y101.329 E50.90668
;MESH:NONMESH
G0 F3600 X159.33 Y83.17
G0 X159.4 Y83.1
;TIME_ELAPSED:51.556452
;LAYER:1
M140 S55
M106 S255
;MESH:3mmBox.stl
G0 F5400 X159.4 Y83.1 Z0.4
;TYPE:WALL-INNER
G1 F3375 X159.4 Y101.9 E51.53197
G1 X140.6 Y101.9 E52.15726
G1 X140.6 Y83.1 E52.78255
G1 X159.4 Y83.1 E53.40784
G0 F5400 X159.8 Y82.7
;TYPE:WALL-OUTER
G1 F2250 X159.8 Y102.3 E54.05974
G1 X140.2 Y102.3 E54.71163
G1 X140.2 Y82.7 E55.36353
G1 X159.8 Y82.7 E56.01543
G0 F5400 X159.8 Y82.9
G0 X159.36 Y83.14
G0 X159.01 Y83.49
;TYPE:SKIN
G1 F2250 X159.01 Y101.51 E56.61478
G1 X140.99 Y101.51 E57.21413
G1 X140.99 Y83.49 E57.81348
G1 X159.01 Y83.49 E58.41282
G0 F5400 X141.472 Y83.669
G1 F2250 X141.169 Y83.973 E58.4271
G0 F5400 X141.169 Y84.538
G1 F2250 X142.038 Y83.669 E58.46797
G0 F5400 X142.604 Y83.669
G1 F2250 X141.169 Y85.104 E58.53547
G0 F5400 X141.169 Y85.67
G1 F2250 X143.17 Y83.669 E58.62959
G0 F5400 X143.735 Y83.669
G1 F2250 X141.169 Y86.235 E58.75029
G0 F5400 X141.169 Y86.801
G1 F2250 X144.301 Y83.669 E58.89761
G0 F5400 X144.867 Y83.669
G1 F2250 X141.169 Y87.367 E59.07155
G0 F5400 X141.169 Y87.932
G1 F2250 X145.432 Y83.669 E59.27207
G0 F5400 X145.998 Y83.669
G1 F2250 X141.169 Y88.498 E59.49921
G0 F5400 X141.169 Y89.064
G1 F2250 X146.564 Y83.669 E59.75298
G0 F5400 X147.129 Y83.669
G1 F2250 X141.169 Y89.63 E60.03334
G0 F5400 X141.169 Y90.195
G1 F2250 X147.695 Y83.669 E60.3403
G0 F5400 X148.261 Y83.669
G1 F2250 X141.169 Y90.761 E60.67389
G0 F5400 X141.169 Y91.327
G1 F2250 X148.826 Y83.669 E61.03407
G0 F5400 X149.392 Y83.669
G1 F2250 X141.169 Y91.892 E61.42086
G0 F5400 X141.169 Y92.458
G1 F2250 X149.958 Y83.669 E61.83427
G0 F5400 X150.523 Y83.669
G1 F2250 X141.169 Y93.024 E62.27427
G0 F5400 X141.169 Y93.589
G1 F2250 X151.089 Y83.669 E62.74088
G0 F5400 X151.655 Y83.669
G1 F2250 X141.169 Y94.155 E63.23411
G0 F5400 X141.169 Y94.721
G1 F2250 X152.22 Y83.669 E63.75394
G0 F5400 X152.786 Y83.669
G1 F2250 X141.169 Y95.286 E64.30037
G0 F5400 X141.169 Y95.852
G1 F2250 X153.352 Y83.669 E64.87342
G0 F5400 X153.918 Y83.669
G1 F2250 X141.169 Y96.418 E65.47309
G0 F5400 X141.169 Y96.983
G1 F2250 X154.483 Y83.669 E66.09934
G0 F5400 X155.049 Y83.669
G1 F2250 X141.169 Y97.549 E66.75221
G0 F5400 X141.169 Y98.115
G1 F2250 X155.615 Y83.669 E67.43171
G0 F5400 X156.18 Y83.669
G1 F2250 X141.169 Y98.68 E68.13778
G0 F5400 X141.169 Y99.246
G1 F2250 X156.746 Y83.669 E68.87047
G0 F5400 X157.312 Y83.669
G1 F2250 X141.169 Y99.812 E69.62979
G0 F5400 X141.169 Y100.378
G1 F2250 X157.877 Y83.669 E70.41571
G0 F5400 X158.443 Y83.669
G1 F2250 X141.169 Y100.943 E71.22822
G0 F5400 X141.349 Y101.329
G1 F2250 X158.828 Y83.85 E72.05038
G0 F5400 X158.828 Y84.415
G1 F2250 X141.914 Y101.329 E72.84596
G0 F5400 X142.48 Y101.329
G1 F2250 X158.828 Y84.981 E73.61492
G0 F5400 X158.828 Y85.547
G1 F2250 X143.046 Y101.329 E74.35726
G0 F5400 X143.611 Y101.329
G1 F2250 X158.828 Y86.112 E75.07302
G0 F5400 X158.828 Y86.678
G1 F2250 X144.177 Y101.329 E75.76216
G0 F5400 X144.743 Y101.329
G1 F2250 X158.828 Y87.244 E76.42468
G0 F5400 X158.828 Y87.809
G1 F2250 X145.309 Y101.329 E77.06059
G0 F5400 X145.874 Y101.329
G1 F2250 X158.828 Y88.375 E77.66991
G0 F5400 X158.828 Y88.941
G1 F2250 X146.44 Y101.329 E78.2526
G0 F5400 X147.006 Y101.329
G1 F2250 X158.828 Y89.506 E78.8087
G0 F5400 X158.828 Y90.072
G1 F2250 X147.571 Y101.329 E79.33819
G0 F5400 X148.137 Y101.329
