;FLAVOR:Marlin
;TIME:1545
;Filament used: 3.6031m
;Layer height: 0.32
;Generated with Cura_SteamEngine 4.0.0-BETA
M82 ;absolute extrusion mode
;------- start.gcode start ----------------
G21			; millimeters
G90			; Absolute positioning
M82 			; Absolute extruder moves for Cura
M104 S210	; set to standby temp and continue
M140 S50	; set final temp and continue
G32			; bed leveling
G29 S1			; load heightmap
G1 Z10 F600			; lift head 10mm
G1 X-15 Y10 F3000		; move just off bed for priming
M190 S50	; set and wait (bed first)
M109 S210	; set and wait
G92 E0			; Reset extruder
G1 Z0.1			; Down to just above 0
G1 E20 F300			; Extrude 20mm blob
G0 X10 F500			; Wipe it off
G92 E0			; Reset extruder
G1 Z5			; Lift head before printing starts
;------- start.gcode end ----------------
G92 E0
G1 F1500 E-0.75
;LAYER_COUNT:141
;LAYER:0
M107
G0 F3600 X130.729 Y77.153 Z0.32
;TYPE:SKIRT
G1 F1500 E0
G1 F2250 X131.811 Y75.53 E0.09965
G1 X132.172 Y75.06 E0.12993
G1 X132.594 Y74.643 E0.16024
G1 X133.03 Y74.311 E0.18823
G1 X134.649 Y73.231 E0.28766
G1 X135.164 Y72.936 E0.31798
G1 X135.713 Y72.712 E0.34827
G1 X136.233 Y72.575 E0.37574
G1 X138.149 Y72.194 E0.47554
G1 X139.007 Y72.11 E0.51959
G1 X165.967 Y72.11 E1.89691
G1 X166.559 Y72.15 E1.92722
G1 X167.139 Y72.269 E1.95747
G1 X167.699 Y72.465 E1.98778
G1 X168.227 Y72.735 E2.01808
G1 X168.714 Y73.073 E2.04836
G1 X169.151 Y73.474 E2.07866
G1 X169.531 Y73.929 E2.10895
G1 X169.845 Y74.432 E2.13924
G1 X170.09 Y74.972 E2.16953
G1 X170.259 Y75.541 E2.19986
G1 X170.35 Y76.126 E2.2301
G1 X170.362 Y76.719 E2.2604
G1 X170.294 Y77.308 E2.29069
G1 X170.147 Y77.883 E2.32101
G1 X169.925 Y78.433 E2.35131
G1 X169.63 Y78.947 E2.38159
G1 X169.079 Y79.621 E2.42607
G1 X137.128 Y111.581 E4.73481
G1 X136.681 Y111.971 E4.76512
G1 X136.186 Y112.298 E4.79542
G1 X135.652 Y112.555 E4.8257
G1 X135.088 Y112.737 E4.85598
G1 X134.504 Y112.843 E4.8863
G1 X133.912 Y112.869 E4.91657
G1 X133.321 Y112.815 E4.94689
G1 X132.744 Y112.682 E4.97714
G1 X132.189 Y112.473 E5.00744
G1 X131.667 Y112.191 E5.03775
G1 X131.188 Y111.841 E5.06806
G1 X130.761 Y111.43 E5.09833
G1 X130.392 Y110.966 E5.12862
G1 X130.09 Y110.456 E5.1589
G1 X129.858 Y109.91 E5.18921
G1 X129.702 Y109.338 E5.2195
G1 X129.616 Y108.471 E5.26401
G1 X129.611 Y81.498 E6.64199
G1 X129.696 Y80.638 E6.68614
G1 X130.075 Y78.735 E6.78527
G1 X130.229 Y78.162 E6.81558
G1 X130.46 Y77.616 E6.84587
G1 X130.729 Y77.153 E6.87323
G0 F3600 X131.062 Y77.375
G1 F2250 X132.144 Y75.752 E6.97288
G1 X132.49 Y75.305 E7.00176
G1 X132.895 Y74.911 E7.03062
G1 X133.252 Y74.643 E7.05343
G1 X134.871 Y73.563 E7.15285
G1 X135.363 Y73.284 E7.18175
G1 X135.888 Y73.076 E7.2106
G1 X136.311 Y72.968 E7.2329
G1 X138.227 Y72.587 E7.3327
G1 X139.007 Y72.51 E7.37274
G1 X165.967 Y72.51 E8.75006
G1 X166.531 Y72.55 E8.77895
G1 X167.084 Y72.669 E8.80785
G1 X167.614 Y72.865 E8.83672
G1 X168.111 Y73.133 E8.86556
G1 X168.566 Y73.469 E8.89446
G1 X168.969 Y73.866 E8.92336
G1 X169.311 Y74.316 E8.95223
G1 X169.587 Y74.809 E8.9811
G1 X169.791 Y75.337 E9.01002
G1 X169.918 Y75.887 E9.03885
G1 X169.967 Y76.451 E9.06778
G1 X169.935 Y77.015 E9.09664
G1 X169.824 Y77.569 E9.1255
G1 X169.636 Y78.103 E9.15442
G1 X169.375 Y78.604 E9.18328
G1 X169.046 Y79.064 E9.21217
G1 X168.796 Y79.338 E9.23112
G1 X136.845 Y111.298 E11.53987
G1 X136.418 Y111.669 E11.56877
G1 X135.943 Y111.975 E11.59763
G1 X135.43 Y112.212 E11.6265
G1 X134.888 Y112.374 E11.6554
G1 X134.329 Y112.458 E11.68428
G1 X133.764 Y112.462 E11.71315
G1 X133.203 Y112.387 E11.74206
G1 X132.659 Y112.233 E11.77094
G1 X132.142 Y112.004 E11.79983
G1 X131.663 Y111.705 E11.82868
G1 X131.23 Y111.34 E11.85761
G1 X130.853 Y110.919 E11.88648
G1 X130.54 Y110.449 E11.91533
G1 X130.295 Y109.939 E11.94423
G1 X130.126 Y109.4 E11.97309
G1 X130.033 Y108.842 E12.00199
G1 X130.016 Y108.471 E12.02097
G1 X130.011 Y81.498 E13.39895
G1 X130.088 Y80.716 E13.4391
G1 X130.467 Y78.813 E13.53822
G1 X130.616 Y78.267 E13.56714
G1 X130.841 Y77.749 E13.59599
G1 X131.062 Y77.375 E13.61818
G0 F3600 X131.395 Y77.597
G1 F2250 X132.477 Y75.974 E13.71783
G1 X132.807 Y75.551 E13.74524
G1 X133.196 Y75.182 E13.77263
G1 X133.474 Y74.976 E13.79031
G1 X135.093 Y73.896 E13.88974
G1 X135.56 Y73.633 E13.91712
G1 X136.061 Y73.441 E13.94453
G1 X136.389 Y73.36 E13.96179
G1 X138.305 Y72.979 E14.06159
G1 X139.007 Y72.91 E14.09762
G1 X165.967 Y72.91 E15.47494
G1 X166.502 Y72.95 E15.50235
G1 X167.025 Y73.069 E15.52975
G1 X167.524 Y73.264 E15.55712
G1 X167.989 Y73.532 E15.58454
G1 X168.409 Y73.865 E15.61193
G1 X168.775 Y74.257 E15.63932
G1 X169.078 Y74.699 E15.6667
G1 X169.313 Y75.182 E15.69414
G1 X169.473 Y75.693 E15.7215
G1 X169.556 Y76.223 E15.7489
G1 X169.558 Y76.76 E15.77634
G1 X169.481 Y77.29 E15.8037
G1 X169.327 Y77.804 E15.83111
G1 X169.097 Y78.288 E15.85849
G1 X168.798 Y78.734 E15.88592
G1 X168.513 Y79.055 E15.90785
G1 X136.562 Y111.015 E18.21659
G1 X136.156 Y111.365 E18.24398
G1 X135.702 Y111.651 E18.27139
G1 X135.211 Y111.866 E18.29877
G1 X134.693 Y112.006 E18.32619
G1 X134.16 Y112.067 E18.35359
G1 X133.624 Y112.049 E18.38099
G1 X133.097 Y111.951 E18.40838
G1 X132.59 Y111.775 E18.4358
G1 X132.115 Y111.527 E18.46317
G1 X131.682 Y111.211 E18.49056
G1 X131.3 Y110.833 E18.51801
G1 X130.979 Y110.404 E18.54538
G1 X130.726 Y109.931 E18.57279
G1 X130.545 Y109.426 E18.60019
G1 X130.442 Y108.9 E18.62758
G1 X130.416 Y108.471 E18.64953
G1 X130.411 Y81.498 E20.02752
G1 X130.48 Y80.794 E20.06366
G1 X130.859 Y78.891 E20.16278
G1 X131.003 Y78.374 E20.1902
G1 X131.222 Y77.885 E20.21757
G1 X131.395 Y77.597 E20.23474
G0 F3600 X131.727 Y77.819
G1 F2250 X132.809 Y76.196 E20.33439
G1 X133.122 Y75.799 E20.36022
G1 X133.696 Y75.309 E20.39877
G1 X135.315 Y74.229 E20.4982
G1 X135.757 Y73.982 E20.52407
G1 X136.467 Y73.752 E20.56219
G1 X138.383 Y73.371 E20.66199
G1 X139.007 Y73.31 E20.69402
G1 X165.967 Y73.31 E22.07135
G1 X166.471 Y73.35 E22.09717
G1 X166.962 Y73.469 E22.12298
G1 X167.429 Y73.663 E22.14882
G1 X167.859 Y73.929 E22.17465
G1 X168.242 Y74.259 E22.20048
G1 X168.568 Y74.646 E22.22633
G1 X168.829 Y75.079 E22.25216
G1 X169.019 Y75.547 E22.27796
G1 X169.132 Y76.04 E22.3038
G1 X169.167 Y76.544 E22.32961
G1 X169.121 Y77.048 E22.35547
G1 X168.997 Y77.538 E22.38129
G1 X168.798 Y78.002 E22.40708
G1 X168.527 Y78.43 E22.43296
G1 X168.23 Y78.772 E22.4561
G1 X136.279 Y110.732 E24.76485
G1 X135.894 Y111.061 E24.79072
G1 X135.463 Y111.324 E24.81651
G1 X134.995 Y111.516 E24.84236
G1 X134.503 Y111.633 E24.86819
G1 X133.999 Y111.67 E24.89401
G1 X133.495 Y111.627 E24.91985
G1 X133.005 Y111.506 E24.94564
G1 X132.539 Y111.309 E24.97148
G1 X132.11 Y111.041 E24.99732
G1 X131.729 Y110.709 E25.02314
G1 X131.405 Y110.321 E25.04897
G1 X131.146 Y109.886 E25.07483
G1 X130.959 Y109.417 E25.10062
G1 X130.848 Y108.923 E25.12649
G1 X130.816 Y108.471 E25.14964
G1 X130.811 Y81.498 E26.52762
G1 X130.873 Y80.872 E26.55976
G1 X131.252 Y78.969 E26.65889
G1 X131.389 Y78.482 E26.68474
G1 X131.727 Y77.819 E26.72275
G1 F1500 E25.97275
;MESH:45x45mm Block Wedge.stl
G0 F3600 X133.895 Y79.118
G0 X134.963 Y79.829
G0 X135.967 Y78.467
G0 X135.897 Y78.397
;TYPE:WALL-INNER
G1 F1500 E26.72275
G1 F2250 X137.322 Y77.445 E26.81031
G1 X139.057 Y77.1 E26.90068
G1 X164.071 Y77.1 E28.17858
G1 X164.072 Y77.1 E28.17863
G1 X164.552 Y77.1 E28.20316
G1 X164.212 Y77.44 E28.21637
G1 X134.94 Y106.712 E30.33124
G1 X134.6 Y107.052 E30.3558
G1 X134.6 Y106.572 E30.36899
G1 X134.6 Y106.571 E30.36905
G1 X134.6 Y81.557 E31.64695
G1 X134.945 Y79.822 E31.73732
G1 X135.897 Y78.397 E31.82487
G0 F3600 X135.608 Y78.108
;TYPE:WALL-OUTER
G1 F2250 X137.165 Y77.069 E31.9205
G1 X139.019 Y76.7 E32.01708
G1 X165.036 Y76.7 E33.34622
G1 X165.038 Y76.7 E33.34632
G1 X165.518 Y76.7 E33.37085
G1 X165.178 Y77.04 E33.38406
G1 X134.54 Y107.678 E35.59762
G1 X134.2 Y108.018 E35.62218
G1 X134.2 Y107.538 E35.63538
G1 X134.2 Y107.536 E35.63548
G1 X134.2 Y81.519 E36.96462
G1 X134.569 Y79.665 E37.0612
G1 X135.608 Y78.108 E37.15682
G0 F3600 X135.774 Y77.997
G0 X136.017 Y78.364
G0 X136.178 Y78.678
;TYPE:SKIN
G1 F2250 X137.476 Y77.811 E37.23657
G1 X139.093 Y77.49 E37.32079
G1 X163.612 Y77.49 E38.57341
G1 X134.99 Y106.112 E40.64131
G1 X134.99 Y81.593 E41.89392
G1 X135.311 Y79.976 E41.97815
G1 X136.178 Y78.678 E42.05789
G0 F3600 X162.85 Y77.997
G1 F2250 X162.522 Y77.67 E42.08155
G0 F3600 X161.957 Y77.67
G1 F2250 X162.567 Y78.28 E42.12562
G0 F3600 X162.284 Y78.563
G1 F2250 X161.391 Y77.67 E42.19014
G0 F3600 X160.825 Y77.67
G1 F2250 X162.001 Y78.845 E42.27507
G0 F3600 X161.718 Y79.128
G1 F2250 X160.26 Y77.67 E42.38041
G0 F3600 X159.694 Y77.67
G1 F2250 X161.436 Y79.411 E42.50623
G0 F3600 X161.153 Y79.694
G1 F2250 X159.128 Y77.67 E42.6525
G0 F3600 X158.563 Y77.67
G1 F2250 X160.87 Y79.977 E42.81917
G0 F3600 X160.587 Y80.26
G1 F2250 X157.997 Y77.67 E43.0063
G0 F3600 X157.431 Y77.67
G1 F2250 X160.304 Y80.542 E43.21383
G0 F3600 X160.021 Y80.825
G1 F2250 X156.865 Y77.67 E43.44181
G0 F3600 X156.3 Y77.67
G1 F2250 X159.738 Y81.108 E43.6902
G0 F3600 X159.456 Y81.391
G1 F2250 X155.734 Y77.67 E43.95908
G0 F3600 X155.168 Y77.67
G1 F2250 X159.173 Y81.674 E44.2484
G0 F3600 X158.89 Y81.957
G1 F2250 X154.603 Y77.67 E44.55813
G0 F3600 X154.037 Y77.67
G1 F2250 X158.607 Y82.24 E44.88831
G0 F3600 X158.324 Y82.522
G1 F2250 X153.471 Y77.67 E45.23889
G0 F3600 X152.906 Y77.67
G1 F2250 X158.041 Y82.805 E45.60989
G0 F3600 X157.759 Y83.088
G1 F2250 X152.34 Y77.67 E46.00137
G0 F3600 X151.774 Y77.67
G1 F2250 X157.476 Y83.371 E46.4133
G0 F3600 X157.193 Y83.654
G1 F2250 X151.209 Y77.67 E46.84563
G0 F3600 X150.643 Y77.67
G1 F2250 X156.91 Y83.937 E47.29841
G0 F3600 X156.627 Y84.219
G1 F2250 X150.077 Y77.67 E47.77161
G0 F3600 X149.512 Y77.67
G1 F2250 X156.344 Y84.502 E48.26521
G0 F3600 X156.062 Y84.785
G1 F2250 X148.946 Y77.67 E48.7793
G0 F3600 X148.38 Y77.67
G1 F2250 X155.779 Y85.068 E49.31383
G0 F3600 X155.496 Y85.351
G1 F2250 X147.815 Y77.67 E49.86877
G0 F3600 X147.249 Y77.67
G1 F2250 X155.213 Y85.634 E50.44416
G0 F3600 X154.93 Y85.917
G1 F2250 X146.683 Y77.67 E51.04
G0 F3600 X146.117 Y77.67
G1 F2250 X154.647 Y86.199 E51.65624
G0 F3600 X154.364 Y86.482
G1 F2250 X145.552 Y77.67 E52.2929
G0 F3600 X144.986 Y77.67
G1 F2250 X154.082 Y86.765 E52.95004
G0 F3600 X153.799 Y87.048
G1 F2250 X144.42 Y77.67 E53.62762
G0 F3600 X143.855 Y77.67
G1 F2250 X153.516 Y87.331 E54.32562
G0 F3600 X153.233 Y87.614
G1 F2250 X143.289 Y77.67 E55.04406
G0 F3600 X142.723 Y77.67
G1 F2250 X152.95 Y87.896 E55.78291
G0 F3600 X152.667 Y88.179
G1 F2250 X142.158 Y77.67 E56.54217
G0 F3600 X141.592 Y77.67
G1 F2250 X152.385 Y88.462 E57.32191
G0 F3600 X152.102 Y88.745
G1 F2250 X141.026 Y77.67 E58.12211
G0 F3600 X140.461 Y77.67
G1 F2250 X151.819 Y89.028 E58.94271
G0 F3600 X151.536 Y89.311
G1 F2250 X139.895 Y77.67 E59.78375
G0 F3600 X139.329 Y77.67
G1 F2250 X151.253 Y89.593 E60.64521
G0 F3600 X150.97 Y89.876
G1 F2250 X138.821 Y77.727 E61.52296
G0 F3600 X138.348 Y77.82
G1 F2250 X150.687 Y90.159 E62.41444
G0 F3600 X150.405 Y90.442
G1 F2250 X137.877 Y77.914 E63.31957
G0 F3600 X137.444 Y78.047
G1 F2250 X150.122 Y90.725 E64.23554
G0 F3600 X149.839 Y91.008
G1 F2250 X137.105 Y78.273 E65.15559
G0 F3600 X136.766 Y78.5
G1 F2250 X149.556 Y91.291 E66.07969
G0 F3600 X149.273 Y91.573
G1 F2250 X136.427 Y78.727 E67.0078
G0 F3600 X136.16 Y79.026
G1 F2250 X148.99 Y91.856 E67.93475
G0 F3600 X148.708 Y92.139
G1 F2250 X135.933 Y79.364 E68.85773
G0 F3600 X135.707 Y79.704
G1 F2250 X148.425 Y92.422 E69.77658
G0 F3600 X148.142 Y92.705
G1 F2250 X135.48 Y80.043 E70.6914
G0 F3600 X135.385 Y80.514
G1 F2250 X147.859 Y92.988 E71.59263
G0 F3600 X147.576 Y93.27
G1 F2250 X135.292 Y80.986 E72.48013
G0 F3600 X135.198 Y81.458
G1 F2250 X147.293 Y93.553 E73.35398
G0 F3600 X147.011 Y93.836
G1 F2250 X135.169 Y81.994 E74.20955
G0 F3600 X135.169 Y82.56
G1 F2250 X146.728 Y94.119 E75.04467
G0 F3600 X146.445 Y94.402
G1 F2250 X135.169 Y83.126 E75.85935
G0 F3600 X135.169 Y83.691
G1 F2250 X146.162 Y94.685 E76.65362
G0 F3600 X145.879 Y94.967
G1 F2250 X135.169 Y84.257 E77.4274
G0 F3600 X135.169 Y84.823
G1 F2250 X145.596 Y95.25 E78.18074
G0 F3600 X145.313 Y95.533
G1 F2250 X135.169 Y85.388 E78.91366
G0 F3600 X135.169 Y85.954
G1 F2250 X145.031 Y95.816 E79.62618
G0 F3600 X144.748 Y96.099
G1 F2250 X135.169 Y86.52 E80.31825
G0 F3600 X135.169 Y87.085
G1 F2250 X144.465 Y96.382 E80.98991
G0 F3600 X144.182 Y96.665
G1 F2250 X135.169 Y87.651 E81.64113
G0 F3600 X135.169 Y88.217
G1 F2250 X143.899 Y96.947 E82.27186
G0 F3600 X143.616 Y97.23
G1 F2250 X135.169 Y88.782 E82.88218
G0 F3600 X135.169 Y89.348
G1 F2250 X143.334 Y97.513 E83.47209
G0 F3600 X143.051 Y97.796
G1 F2250 X135.169 Y89.914 E84.04155
G0 F3600 X135.169 Y90.479
G1 F2250 X142.768 Y98.079 E84.59061
G0 F3600 X142.485 Y98.362
G1 F2250 X135.169 Y91.045 E85.11922
G0 F3600 X135.169 Y91.611
G1 F2250 X142.202 Y98.644 E85.62734
G0 F3600 X141.919 Y98.927
G1 F2250 X135.169 Y92.177 E86.11502
G0 F3600 X135.169 Y92.742
G1 F2250 X141.637 Y99.21 E86.58233
G0 F3600 X141.354 Y99.493
G1 F2250 X135.169 Y93.308 E87.02918
G0 F3600 X135.169 Y93.874
G1 F2250 X141.071 Y99.776 E87.4556
G0 F3600 X140.788 Y100.059
G1 F2250 X135.169 Y94.439 E87.8616
G0 F3600 X135.169 Y95.005
G1 F2250 X140.505 Y100.341 E88.24712
G0 F3600 X140.222 Y100.624
G1 F2250 X135.169 Y95.571 E88.61219
G0 F3600 X135.169 Y96.136
G1 F2250 X139.939 Y100.907 E88.95685
G0 F3600 X139.657 Y101.19
G1 F2250 X135.169 Y96.702 E89.2811
G0 F3600 X135.169 Y97.268
G1 F2250 X139.374 Y101.473 E89.58491
G0 F3600 X139.091 Y101.756
G1 F2250 X135.169 Y97.833 E89.86831
G0 F3600 X135.169 Y98.399
G1 F2250 X138.808 Y102.039 E90.13126
G0 F3600 X138.525 Y102.321
G1 F2250 X135.169 Y98.965 E90.37372
G0 F3600 X135.169 Y99.53
G1 F2250 X138.242 Y102.604 E90.59578
G0 F3600 X137.96 Y102.887
G1 F2250 X135.169 Y100.096 E90.79743
G0 F3600 X135.169 Y100.662
G1 F2250 X137.677 Y103.17 E90.97862
G0 F3600 X137.394 Y103.453
G1 F2250 X135.169 Y101.227 E91.13941
G0 F3600 X135.169 Y101.793
G1 F2250 X137.111 Y103.736 E91.27976
G0 F3600 X136.828 Y104.018
G1 F2250 X135.169 Y102.359 E91.39962
G0 F3600 X135.169 Y102.925
G1 F2250 X136.545 Y104.301 E91.49903
G0 F3600 X136.263 Y104.584
G1 F2250 X135.169 Y103.49 E91.57807
G0 F3600 X135.169 Y104.056
G1 F2250 X135.98 Y104.867 E91.63667
G0 F3600 X135.697 Y105.15
G1 F2250 X135.169 Y104.622 E91.67481
G0 F3600 X135.169 Y105.187
M104 S210
G1 F2250 X135.414 Y105.433 E91.69255
;MESH:NONMESH
G0 F3600 X135.967 Y78.467
G0 X135.897 Y78.397
;TIME_ELAPSED:59.341423
;LAYER:1
M140 S50
G1 F1500 E90.94255
M106 S255
;MESH:45x45mm Block Wedge.stl
G0 F5400 X135.897 Y78.397 Z0.64
;TYPE:WALL-INNER
G1 F1500 E91.69255
G1 F3375 X137.322 Y77.445 E91.7801
G1 X139.057 Y77.1 E91.87047
G1 X164.071 Y77.1 E93.14838
G1 X164.072 Y77.1 E93.14843
G1 X164.552 Y77.1 E93.17295
G1 X164.212 Y77.44 E93.18617
G1 X134.94 Y106.712 E95.30103
G1 X134.6 Y107.052 E95.3256
G1 X134.6 Y106.572 E95.33879
G1 X134.6 Y106.571 E95.33884
G1 X134.6 Y81.557 E96.61675
G1 X134.945 Y79.822 E96.70712
G1 X135.897 Y78.397 E96.79467
G0 F5400 X135.608 Y78.108
;TYPE:WALL-OUTER
G1 F2250 X137.165 Y77.069 E96.8903
G1 X139.019 Y76.7 E96.98687
G1 X165.036 Y76.7 E98.31602
G1 X165.038 Y76.7 E98.31612
G1 X165.518 Y76.7 E98.34064
G1 X165.178 Y77.04 E98.35386
G1 X134.54 Y107.678 E100.56741
G1 X134.2 Y108.018 E100.59198
G1 X134.2 Y107.538 E100.60517
G1 X134.2 Y107.536 E100.60527
G1 X134.2 Y81.519 E101.93442
G1 X134.569 Y79.665 E102.03099
G1 X135.608 Y78.108 E102.12662
G0 F5400 X135.774 Y77.997
G0 X136.017 Y78.364
G0 X136.178 Y78.678
;TYPE:SKIN
G1 F2250 X137.476 Y77.811 E102.20636
G1 X139.093 Y77.49 E102.29059
G1 X163.612 Y77.49 E103.5432
G1 X134.99 Y106.112 E105.6111
G1 X134.99 Y81.593 E106.86372
G1 X135.311 Y79.976 E106.94794
G1 X136.178 Y78.678 E107.02769
G0 F5400 X137.547 Y77.979
G1 F2250 X135.478 Y80.047 E107.17713
G0 F5400 X135.338 Y80.753
G1 F2250 X138.252 Y77.839 E107.38766
G0 F5400 X138.957 Y77.699
G1 F2250 X135.199 Y81.457 E107.65918
G0 F5400 X135.169 Y82.054
G1 F2250 X139.553 Y77.67 E107.97591
G0 F5400 X140.118 Y77.67
G1 F2250 X135.169 Y82.619 E108.33347
G0 F5400 X135.169 Y83.185
G1 F2250 X140.684 Y77.67 E108.73192
G0 F5400 X141.25 Y77.67
G1 F2250 X135.169 Y83.751 E109.17127
G0 F5400 X135.169 Y84.316
